img/github.svg

<svg xmlns="http://www.w3.org/2000/svg" width="32" height="32" fill="none"><g clip-path="url(#a)"><path fill="url(#b)" d="M16 0C7.16 0 0 7.16 0 16c0 7.08 4.58 13.06 10.94 15.18.8.14 1.1-.34 1.1-.76 0-.38-.02-1.64-.02-2.98-4.02.74-5.06-.98-5.38-1.88-.18-.46-.96-1.88-1.64-2.26-.56-.3-1.36-1.04-.02-1.06 1.26-.02 2.16 1.16 2.46 1.64 1.44 2.42 3.74 1.74 4.66 1.32.14-1.04.56-1.74 1.02-2.14-3.56-.4-7.28-1.78-7.28-7.9 0-1.74.62-3.18 1.64-4.3-.16-.4-.72-2.04.16-4.24 0 0 1.34-.42 4.4 1.64 1.28-.36 2.64-.54 4-.54 1.36 0 2.72.18 4 .54 3.06-2.08 4.4-1.64 4.4-1.64.88 2.2.32 3.84.16 4.24 1.02 1.12 1.64 2.54 1.64 4.3 0 6.14-3.74 7.5-7.3 7.9.58.5 1.08 1.46 1.08 2.96 0 2.14-.02 3.86-.02 4.4 0 .42.3.92 1.1.76A16.024 16.024 0 0 0 32 16c0-8.84-7.16-16-16-16Z"/></g><defs><linearGradient id="b" x1="16" x2="16" y1="0" y2="31.211" gradientUnits="userSpaceOnUse"><stop stop-color="#F3D535"/><stop offset="1" stop-color="#D09600"/></linearGradient><clipPath id="a"><path fill="#fff" d="M0 0h32v32H0z"/></clipPath></defs></svg>

<svg width="32" height="32" viewBox="0 0 32 32" fill="none" xmlns="http://www.w3.org/2000/svg">
<g clip-path="url(#clip0_177_260)">
<path d="M16 0C7.16 0 0 7.16 0 16C0 23.08 4.58 29.06 10.94 31.18C11.74 31.32 12.04 30.84 12.04 30.42C12.04 30.04 12.02 28.78 12.02 27.44C8 28.18 6.96 26.46 6.64 25.56C6.46 25.1 5.68 23.68 5 23.3C4.44 23 3.64 22.26 4.98 22.24C6.24 22.22 7.14 23.4 7.44 23.88C8.88 26.3 11.18 25.62 12.1 25.2C12.24 24.16 12.66 23.46 13.12 23.06C9.56 22.66 5.84 21.28 5.84 15.16C5.84 13.42 6.46 11.98 7.48 10.86C7.32 10.46 6.76 8.82 7.64 6.62C7.64 6.62 8.98 6.2 12.04 8.26C13.32 7.9 14.68 7.72 16.04 7.72C17.4 7.72 18.76 7.9 20.04 8.26C23.1 6.18 24.44 6.62 24.44 6.62C25.32 8.82 24.76 10.46 24.6 10.86C25.62 11.98 26.24 13.4 26.24 15.16C26.24 21.3 22.5 22.66 18.94 23.06C19.52 23.56 20.02 24.52 20.02 26.02C20.02 28.16 20 29.88 20 30.42C20 30.84 20.3 31.34 21.1 31.18C24.2765 30.108 27.0367 28.0667 28.9921 25.3435C30.9474 22.6203 31.9994 19.3525 32 16C32 7.16 24.84 0 16 0Z" fill="url(#paint0_linear_177_260)"/>
</g>
<defs>
<linearGradient id="paint0_linear_177_260" x1="16" y1="0" x2="16" y2="31.2106" gradientUnits="userSpaceOnUse">
<stop stop-color="#F3D535"/>
<stop offset="1" stop-color="#D09600"/>
</linearGradient>
<clipPath id="clip0_177_260">
<rect width="32" height="32" fill="white"/>
</clipPath>
</defs>
</svg>
